X:1
T:Caravan
T:Caravan
T:Goats in a Boat
T:Juan Tizol Arr. Glass
C:Juan Tizol Arr. Glass
%%score 1 { 2 | 3 } ( 4 5 6 )
L:1/8
Q:1/4=210
M:4/4
K:Ab
V:1 treble transpose=-21 nm="Baritone Saxophone" snm="Bar. Sax."
V:2 treble nm="Piano" snm="Piano"
V:3 bass 
V:4 perc nm="Drums" snm="Drums"
K:none
I:percmap B B 0 slash
I:percmap F F 36 normal
I:percmap ^a a 49 x
I:percmap ^f f 51 x
I:percmap ^g g 42 x
I:percmap c c 38 normal
I:percmap d d 45 normal
I:percmap e e 47 normal
V:5 perc 
K:none
I:percmap F F 36 normal
I:percmap c c 38 normal
V:6 perc 
K:none
I:percmap ^b b 52 x
V:1
[K:F]"^Freely" (!>!A8- | A8- | A2 B2 A2 E2 | G2 A2 ^c2 E2 | G8- | G8) | z (A2 B2 A2 B- | %7
 B A2 ^G2 ^C2 =G- | G8- | G8) | z (A2 _A2 G2 ^F- | F =F2 E2 ^C2 D- | D8- | D8- | D8) | %15
[Q:1/4=140] z8 | z8 | z8 | z8 | z8 | z8 | z8 | z8 | z8 | z8 |!ff! A,>!>!A z .A, B,>!>!B z .B, | %26
 A,>!>!A z .A, G>!>!G z .G | A,>!>!A z .A, B,>!>!B z .B, | A,>!>!A z .A, G>!>!G z .G | %29
 A,>!>!A z .A, B,>!>!B z .B, | A,>!>!A z .A, G>!>!G z .G | A,>!>!A z .A, B,>!>!B z .B, | %32
 A,>!>!A z .A, G>!>!G z .G | (3C2 E2 A2 (3F2 ^A2 d2 | c3- !~(!c !~)!f4 | dADe ADfA | %36
 DgdG _a2 f/^f/g/^g/ | .a2 z2 z4 | z4 z2 z z/4 e/4^f/4g/4 |!f! a8- | a^a=ae ga ^c'/eg/- | g8 | %42
 z a/^a/ =a.^a =a>^g _d=g- | g8 | z3/2 a/ _a/g.^f^e3/2 =e^c/d/- | d8- | d4 z2 z z/4 e/4^f/4g/4 | %47
 a8- | a^a=ae ga ^c'/eg/- | g8 | z a/^a/ =a.^a =a>^g _d=g- | g8 | z3/2 a/ _a/g.^f^e3/2 =e^c/d/- | %53
 d6- !~(!d !~)!_e' | d'3/2d'd'/c' d' z !^!d2 | z8 | z ^F/d/ e/^f/e/^d/ =d/e/d/c/ B/A/_A/G/- | %57
 G6 z2 | z/ A/B/=B/ d/e/d/e/ g/e/g/e/ a/g/ z | z8 | GBdg Ac d/ca/- | a4- ae/f/ g/f/g/ z/ | %62
 C/ z/ z2 C/ z/ z4 |!mp! A3/2E3/2A B3/2F3/2B | A3/2E3/2A G3/2D3/2G | A3/2E3/2A B3/2F3/2B | %66
 A3/2E3/2A G3/2D3/2G | A3/2E3/2A B3/2F3/2D | z A/ z/ B/ z/ =B/ z/ c/d/_e/=e/ f2 | %69
 e3 A/^A/ =B/c/^c/d/ ^d/e/f/g/ |!f! a6- a!~(!e |!ff! !~)!a4 (a/f/e/d/) (g/e/d/B/) | %72
!mp! A3/2E3/2A B3/2F3/2B | A3/2E3/2A G3/2D3/2G | A3/2E3/2A B3/2F3/2B | A3/2E3/2A G3/2D3/2G | %76
 A3/2E3/2A B3/2F3/2D | A,2 z2 z4 | z4 z2 z z/4 e/4^f/4g/4 |!f! a8- | a^a=ae ga ^c'/eg/- | g8 | %82
 z a/^a/ =a.^a =a>^g _d=g- | g8 | z3/2 a/ _a/g.^f^e3/2 =e^c/d/- | d8- | d4 z2 z z/4 e/4^f/4g/4 | %87
 a8- | a^a=ae ga ^c'/eg/- | g8 | z a/^a/ =a.^a =a>^g _d=g- | g8 | z3/2 a/ _a/g.^f^e3/2 =e^c/d/- | %93
 d4 z4 | z8 |"^Fast Swing (16ths)" z8 |!f! z/ (^F/A/c/ e/^f/e/d/- d/e/d/c/ =B/d/_A/G/- | G8) | %98
 z/ (=B/c/d/ e/f/g/a/ g/a/b/a/ d'/=b/f/e/- | e8) | (GBdg Ac e^g/a/- | ae/g/ f/d/=B/c/- c4) | %102
 c/ z/ z2 c/ z/ z2 e/>f/ z3/4 g/4 |!f!"^Straight" a8- | a^a=ae ga ^c'/eg/- | g8 | %106
 z a/^a/ =a.^a =a>^g _d=g- | g8 | z A/ z/ B/ z/ =B/ z/ c/d/_e/=e/ f2 |!>(! e8- | e6!>)!!ppp! z2 |] %111
V:2
 z8 | z8 | z8 | z8 | z8 | z8 | z8 | z8 | z8 | z8 | z8 | z8 | z8 | z8 | z8 | z8 | z8 | z8 | z8 | %19
 z8 | z8 | =E>[FA] ^c/=c[FBd]de/ ^c=c | =E3/2^c=c[FBd]dd/ [FAc]B | =E>[FA] ^c/=c[FBd]de/ ^c=c | %24
 =E3/2^c=cdE/G/B/ c/^c/=c |!f! =E>[FA] ^c/=c[FBd]de/ ^c=c | =E3/2^c=c[FBd]dd/ [FAc]B | %27
 =E>[FA] ^c/=c[FBd]de/ ^c=c | =E3/2^c=cdE/G/B/ c/^c/=c |!f! =E>[FA] ^c/=c[FBd]de/ ^c=c | %30
 =E3/2^c=c[FBd]dd/ [FAc]B | =E>[FA] ^c/=c[FBd]de/ ^c=c | =E3/2^c=cdE/G/B/ c/^c/=c | %33
 [cegc']4 [Bdfb]4 | [Acfa]4 [_GBdf]4 | [FAcf]3 [=EGBdf]3 [^D-FAc]2 | D [=DFGB]3 ^C2 ^G/=A/^A/=B/ | %37
 .c2 z2 z4 | z8 | =E>[FA] ^c/=c[FBd]de/ ^c=c | =E3/2^c=c[FBd]dd/ [FAc]B | %41
 =E>[FA] ^c/=c[FBd]de/ ^c=c | =E3/2^c=c[FBd]dd/ [FAc]B | =E>[FA] ^c/=c[FBd]de/ ^c=c | c2 z2 z4 | %45
 z8 | z4 z [DEGd]3 | =E>[FA] ^c/=c[FBd]de/ ^c=c | =E3/2^c=c[FBd]dd/ [FAc]B | %49
 =E>[FA] ^c/=c[FBd]de/ ^c=c | =E3/2^c=c[FBd]dd/ [FAc]B | =E>[FA] ^c/=c[FBd]de/ ^c=c | c z z2 z4 | %53
 z8 | z8 | [=A,CEG]4 [A,CEG]2 [B,DFA]>[A,CEG]- | [A,CEG]4 [=Aceg]4 | %57
 z/ ^C/=D/F/ B/=B/c/^c/ [F_B=d]2 [=EGBc^d]>[FAB=d]- | [FABd]4 [GAc=df]7/2 [GB_dfg]/- | %59
 [GBdfg]7/2 z/ [E_G_ce]3/2[__EFB__e]3/2[DFBd]- | [DFBd]2 [Bdf]2 [GBce]2 [B,DFA]>[G,B,CE]- | %61
 [G,B,CE]G/B/ A/F/=D/[CE]/- [CE]A/=A/ B/A/B | [CFGc]/ z/ z2 [CFGc]/G/ z2!<(! G/.AB/!<)! |!ff! c8- | %64
 cd c/GB3/2c =e/GB/- | B8- | Bc/^c/ =c.d c>_c _F!>!B- | B- B6 z | %68
 z C/ z/ D/ z/ =D/ z/ E/F/_G/=G/ A2 | G3 C/^C/ =D/E/=E/F/ ^F/G/A/B/ | c8 | z8 | %72
 c2 z .B B/.A.GF/G/A/ | G6 FD | B,3 B, F2 A2 | _F3/2G3/2c B3/2=F3/2D | C3/2E3/2G B3/2A>ED/ | C8 | %78
 z8 | =E>[FA] ^c/=c[FBd]de/ ^c=c | =E3/2^c=c[FBd]dd/ [FAc]B | =E>[FA] ^c/=c[FBd]de/ ^c=c | %82
 =E3/2^c=c[FBd]dd/ [FAc]B | =E>[FA] ^c/=c[FBd]de/ ^c=c | c2 z2 z4 | z8 | z4 z [DEGd]3 | %87
 =E>[FA] ^c/=c[FBd]de/ ^c=c | =E3/2^c=c[FBd]dd/ [FAc]B | =E>[FA] ^c/=c[FBd]de/ ^c=c | %90
 =E3/2^c=c[FBd]dd/ [FAc]B | =E>[FA] ^c/=c[FBd]de/ ^c=c | c z z2 z4 | z8 | z8 | %95
 [=A,CEG]4 [A,CEG]2 [B,DFA]>[A,CEG]- | [A,CEG]4 [=Aceg]4 | %97
 z/ ^C/=D/F/ B/=B/c/^c/ [F_B=d]2 [=EGBc^d]>[FAB=d]- | [FABd]4 [GAc=df]7/2 [GB_dfg]/- | %99
 [GBdfg]7/2 z/ [E_G_ce]3/2[__EFB__e]3/2[DFBd]- | [DFBd]2 [Bdf]2 [GBce]2 [B,DFA]>[G,B,CE]- | %101
 [G,B,CE]G/B/ A/F/=D/[CE]/- [CE]A/=A/ B/A/B | [CFGc]/ z/ z2 [CFGc]/ z/ z4 | %103
 =E>[FA] ^c/=c[FBd]de/ ^c=c | =E3/2^c=c[FBd]dd/ [FAc]B | =E>[FA] ^c/=c[FBd]de/ ^c=c | %106
 =E3/2^c=c[FBd]dd/ [FAc]B | =E>[FA] ^c/=c[FBd]de/ ^c=c | z8 | z4 [=DG]4- | [DG]8 |] %111
V:3
 z8 | z8 | z8 | z8 | z8 | z8 | z8 | z8 | z8 | z8 | z8 | z8 | z8 | z8 | z8 | z8 | z8 | %17
!mf! C,3/2G,,3/2C, D,3/2A,,3/2D, | C,3/2G,,3/2C, B,,3/2F,,3/2B,, | C,3/2G,,3/2C, D,3/2A,,3/2D, | %20
 C,3/2G,,3/2C, B,,3/2F,,3/2B,, | C,3/2G,,3/2C, D,3/2A,,3/2D, | C,3/2G,,3/2C, B,,3/2F,,3/2B,, | %23
 C,3/2G,,3/2C, D,3/2A,,3/2D, | C,3/2G,,3/2C, B,,3/2F,,3/2B,, | C,3/2G,,3/2C, D,3/2A,,3/2D, | %26
 C,3/2G,,3/2C, B,,3/2F,,3/2B,, | C,3/2G,,3/2C, D,3/2A,,3/2D, | C,3/2G,,3/2C, B,,3/2F,,3/2B,, | %29
 C,3/2G,,3/2C, D,3/2A,,3/2D, | C,3/2G,,3/2C, B,,3/2F,,3/2B,, | C,3/2G,,3/2C, D,3/2A,,3/2D, | %32
 C,3/2G,,3/2C, B,,3/2F,,3/2B,, | C,4 B,,4 | A,,4 _G,,4 | F,,3 =E,,3 ^D,,2- | %36
 D,, =D,,3 ^C,,2 ^G,,/=A,,/^A,,/=B,,/ | .C,2 z2 z4 | z8 | C,3/2G,,3/2C, ^C,3/2^G,,3/2C, | %40
 C,3/2G,,3/2C, B,,3/2F,,3/2B,, | C,3/2G,,3/2C, ^C,3/2^G,,3/2C, | C,3/2G,,3/2C, ^C,3/2^G,,3/2C, | %43
 C,3/2G,,3/2C, B,,3/2F,,3/2B,, | .C,2 z2 z4 | F,,3/2C,,3/2^D,, F,,3/2C,,3/2D,, | %46
 F,,3/2C,,3/2^D,, z ^C,,3 | C,,3/2G,,3/2C,, ^C,,3/2^G,,3/2C,, | C,,3/2G,,3/2C, ^A,,3/2G,,3/2=B,,, | %49
 C,,3/2G,,3/2C,, ^C,,3/2^G,,3/2C,, | C,,3/2G,,3/2C, ^A,,3/2G,,3/2=B,,, | %51
 C,3/2G,,3/2C, ^C,3/2^G,,3/2C, | C,, z z2 z4 | F,,2 z F,, F,,3 F,, | F,,3/2F,,F,,/F,, F,, z .B,,2 | %55
!mf! F,,4 F,,2 G,,>F,,- | F,,8 | z/ ^C,/=D,/F,/ B,/=B,/C/^C/ =D2 A,>G,- | %58
 G,4 [=D,F,A,C]7/2 [F,B,DF]/- | [F,B,DF]7/2 z/ z2 z E,- | E,2 z2 z4 | %61
 z2 z z/ [F,A,]/- [F,A,]A,/=A,/ B,/A,/B, | [G,,G,]/ z/ z2 [G,,G,]/G,/ z4 | z8 | z8 | z8 | z8 | z8 | %68
 z8 | G,3 C,/^C,/ =D,/E,/=E,/F,/ ^F,/G,/A,/B,/ | C8 | z8 | z8 | z8 | z8 | z8 | z8 | z8 | z8 | %79
 C,3/2G,,3/2C, ^C,3/2^G,,3/2C, | C,3/2G,,3/2C, B,,3/2F,,3/2B,, | C,3/2G,,3/2C, ^C,3/2^G,,3/2C, | %82
 C,3/2G,,3/2C, ^C,3/2^G,,3/2C, | C,3/2G,,3/2C, B,,3/2F,,3/2B,, | .C,2 z2 z4 | %85
 F,,3/2C,,3/2^D,, F,,3/2C,,3/2D,, | F,,3/2C,,3/2^D,, z ^C,,3 | C,,3/2G,,3/2C,, ^C,,3/2^G,,3/2C,, | %88
 C,,3/2G,,3/2C, ^A,,3/2G,,3/2=B,,, | C,,3/2G,,3/2C,, ^C,,3/2^G,,3/2C,, | %90
 C,,3/2G,,3/2C, ^A,,3/2G,,3/2=B,,, | C,3/2G,,3/2C, ^C,3/2^G,,3/2C, | C,, z z2 z4 | %93
 F,,2 z F,, F,,3 F,, | F,,3/2F,,F,,/F,, F,, z .B,,2 |!mf! F,,4 F,,2 G,,>F,,- | F,,8 | %97
 z/ ^C,/=D,/F,/ B,/=B,/C/^C/ =D2 A,>G,- | G,4 [=D,F,A,C]7/2 [F,B,DF]/- | [F,B,DF]7/2 z/ z2 z E,- | %100
 E,2 z2 z4 | z2 z z/ [F,A,]/- [F,A,]A,/=A,/ B,/A,/B, | [G,,G,]/ z/ z2 [G,,G,]/ z/ z4 | %103
 C,3/2G,,3/2C, ^C,3/2^G,,3/2C, | C,3/2G,,3/2C, B,,3/2F,,3/2B,, | C,3/2G,,3/2C, ^C,3/2^G,,3/2C, | %106
 C,3/2G,,3/2C, ^C,3/2^G,,3/2C, | C,3/2G,,3/2C, B,,3/2F,,3/2B,, | z8 | %109
 z4!ped! [F,,C,F,A,]4-!ped-up! | [F,,C,F,A,]8 |] %111
V:4
[K:C] z8 | z8 | z8 | z8 | z8 | z8 | z8 | z8 | z8 | z8 | z8 | z8 | z8 | z8 | %14
 z4 z2!mf!"_Latin Feel" (6:4:6c/c/c/c/c/c/ | ^f2 ^f2 ^f2 ^f2 | ^f2 ^f2 ^f2 ^f2 | x8 | x8 | x8 | %20
 x8 | x8 | x8 | x8 | x8 | ^f2 ^f2 ^f2 ^f2 | x8 | x8 | x8 | x8 | x8 | x8 | x8 | %33
 (3^a2 ^a2 ^a2 (3^a2 ^a2 ^a2 | (3^a2 ^a2 ^a2 (3^a2 ^a2 ^a2 | ^a2 c/c/ ^a2 c/c/ ^a2- | %36
 [F^a] [F^a]2 c/c/ [F^a]2 c/c/c/c/ | c2 !stemless!B2 !stemless!B2 !stemless!B2 | %38
 !stemless!B2 !stemless!B2 !stemless!B2 !stemless!B2 |!mf! ^f2 ^f2 ^f2 ^f2 | x8 | x8 | x8 | %43
 ^f2 ^f2 ^f2 (3c/c/c/(3c/c/c/ | c2 z2 e/ed/ dd |!mf! ^f2 ^f2 ^f2 ^f2 | x8 | x8 | x8 | x8 | x8 | %51
 x8 | x8 | x8 | x8 |"_Snare/Bass opt." ^f^g^f^g ^f^g^f^g | ^f^g^f^g ^f^g^f^g | ^f^g^f^g ^f^g^f^g | %58
 ^f^g^f^g ^f^g^f^g | ^f^g^f^g ^f^g^f^g | ^f^g^f^g ^f^g^f^g | ^f^g^f^g ^f^g^f^g | c !///!c2 c z4 | %63
 ^f2 ^f2 ^f2 ^f2 | x8 | x8 | x8 | x8 | x8 | x8 | x8 | x8 | x8 | x8 | x8 | x8 | x8 | %77
 ^f2 ^f2!fff! !>![F^f]2 z2 | %78
!ppp! !/!c/!<(!!/!c/!/!c/!/!c/ !/!c/!/!c/!/!c/!/!c/ !/!c/!/!c/!/!c/!/!c/ !/!c/!/!c/!/!c/!/!c/!<)! | %79
!mf! ^f2 ^f2 ^f2 ^f2 | x8 | x8 | x8 | ^f2 ^f2 ^f2 (3c/c/c/(3c/c/c/ | c2 z2 e/ed/ dd | %85
!mf! ^f2 ^f2 ^f2 ^f2 | x8 | x8 | x8 | x8 | x8 | x8 | x8 | x8 | x8 | %95
 ^f[^f^g]^f[^f^g] ^f[^f^g]^f[^f^g] | ^f[^f^g]^f[^f^g] ^f[^f^g]^f[^f^g] | %97
 ^f[^f^g]^f[^f^g] ^f[^f^g]^f[^f^g] | ^f[^f^g]^f[^f^g] ^f[^f^g]^f[^f^g] | %99
 ^f[^f^g]^f[^f^g] ^f[^f^g]^f[^f^g] | ^f[^f^g]^f[^f^g] ^f[^f^g]^f[^f^g] | %101
 ^f[^f^g]^f[^f^g] ^f[^f^g]^f[^f^g] | ^f!//!c-!//!c^f z2 c/>c/ z3/4 c/4 |!mf! ^f2 ^f2 ^f2 ^f2 | x8 | %105
 x8 | x8 | ^f2 ^f2 ^f2 (3c/c/c/(3c/c/c/ | z ^a/ z/ ^a/ z/ ^a/ z/ [c^a]/c/c/c/ ^a2 | %109
 !///!^f2 !///!^f2 ^f4 | z8 |] %111
V:5
[K:C] x8 | x8 | x8 | x8 | x8 | x8 | x8 | x8 | x8 | x8 | x8 | x8 | x8 | x8 | x8 | c x7 | x8 | x8 | %18
 x8 | x8 | x8 | x8 | x8 | x8 | x8 | F3/2 z3/2 F F3/2 z3/2 F | x8 | x8 | x8 | x8 | x8 | x8 | x8 | %33
 (3F2 F2 F2 (3F2 F2 F2 | (3F2 F2 F2 (3F2 F2 F2 | F2 x4 F2- | x8 | x8 | x8 | %39
 F3/2 z3/2 F F3/2 z3/2 F | x8 | x8 | x8 | F3/2 z3/2 F F3/2 z3/2 F | x8 | F3/2 z3/2 F F3/2 z3/2 F | %46
 x8 | x8 | x8 | x8 | x8 | x8 | x8 | x8 | x8 | !>![Fc]4 !>![Fc]2 !>![Fc]>!>![Fc] | x8 | %57
 z2 !>![Fc]2 !>![Fc]2 !>![Fc]>[Fc] | x8 | !>![Fc]4 !>![Fc] x !>![Fc]!>![Fc] | x8 | x8 | x8 | x8 | %64
 x8 | x8 | x8 | x8 | x8 | x8 | x8 | x8 | x8 | x8 | x8 | x8 | x8 | x8 | x8 | %79
 F3/2 z3/2 F F3/2 z3/2 F | x8 | x8 | x8 | F3/2 z3/2 F F3/2 z3/2 F | x8 | F3/2 z3/2 F F3/2 z3/2 F | %86
 x8 | x8 | x8 | x8 | x8 | x8 | x8 | x8 | x8 | x8 | x8 | x8 | x8 | x8 | x8 | x8 | x8 | %103
 F3/2 z3/2 F F3/2 z3/2 F | x8 | x8 | x8 | F3/2 z3/2 F F3/2 z3/2 F | x8 | x4 F4 | x8 |] %111
V:6
[K:C] x8 | x8 | x8 | x8 | x8 | x8 | x8 | x8 | x8 | x8 | x8 | x8 | x8 | x8 | x8 | x8 | x8 | x8 | %18
 x8 | x8 | x8 | x8 | x8 | x8 | x8 | x8 | x8 | x8 | x8 | x8 | x8 | x8 | x8 | x8 | x8 | x8 | x8 | %37
 x8 | x8 | x8 | x8 | x8 | x8 | x8 | x8 | x8 | x8 | x8 | x8 | x8 | x8 | x8 | x8 | x8 | x8 | x8 | %56
 x8 | x8 | x8 | x8 | x8 | x8 | x8 | x8 | x8 | x8 | x8 | x8 | x8 | x8 | x8 | x8 | x8 | x8 | x8 | %75
 x8 | x8 | x8 | x8 | x8 | x8 | x8 | x8 | x8 | x8 | x8 | x8 | x8 | x8 | x8 | x8 | x8 | x8 | x8 | %94
 x8 | x8 | x8 | x8 | x8 | x8 | x8 | x8 | x8 | x8 | x8 | x8 | x8 | x8 | x8 | x4 ^b4 | x8 |] %111

